X: 1638
T: Sabâ Peşrev
C: Tab`î Mustafa Efendi
O: Turkey
F: http://compmusic.upf.edu/node/140
N: saba--pesrev--duyek----tabi_mustafa_efendi
N: makam= saba
N: form= pesrev
N: usul= duyek = 8/4
M: 8/4
L: 1/16
K: C _2/4B _3/4d  
Q: 1/4=162
%%MIDI tuningsystem comma53
c2 d2 c2 B2 c4 d4  | c6 d2 c4 B4  | c2 B2 c2 d2 c2 d2 c2 B2  | \
w:  1. HANE  |   |   | 
e2 d2 c2 d2 d2 c4 B2  | 
w:   | 
c4 B2 c2 B4 c2 d2  | e6 f2 e2 f2 e2 f2  | \
w:   |   | 
g4 a2 g2 f4 e2 f2  | e2 d2 c2 d2 c4 B4  | 
w:   |   | 
c2 de d2 c2 B2 cd c2 B2  | A2 B2 c2 d2 B4 c4  | \
w:   |   | 
c6 B2 cd cB c4  | 
w:  TESLİM  | 
B2 c2 B2 c2 d2 e2 d2 c2  | e4 d2 e2 d2 c4 B2  | \
w:   |   | 
cd cB c2 d2 d2 c4 B2  | 
w:   | 
A2 G2 A2 B2 c4 d2 e2  | d2 c4 B2 z2 d2 c2 B2  | \
w:   |   | 
A2 B2 c2 d2 e4 d2 c2  | 
w:   | 
d4 c2 B2 c3B A4  | c6 B2 A2 B2 G4  | \
w:   |  2. HANE  | 
A2 G2 A2 B2 c4 B2 c2  | =d6 ^c2 d2 c2 d4  | 
w:   |   | 
^c2 =d2 c2 d2 e2 f2 e2 f2  | g4 a2 g2 f4 g2 f2  | \
w:   |   | 
e4 f2 g2 f2 g2 f2 e2  | 
w:   | 
d4 e2 f2 e2 d4 e2  | d2 c4 B2 z2 d2 c2 B2  | \
w:   |   | 
A2 B2 G4 A2 B2 c2 d2  | e2 d2 d2 c2 c2 B2 c2 d2  | 
w:   |   | 
d2 c4 B2 A2 B2 c4  | c6 B2 cd cB c4  | \
w:   |  TESLİM  | 
B2 c2 B2 c2 d2 e2 d2 c2  | 
w:   | 
e4 d2 e2 d2 c4 B2  | cd cB c2 d2 d2 c4 B2  | \
w:   |   | 
A2 G2 A2 B2 c4 d2 e2  | 
w:   | 
d2 c4 B2 z2 d2 c2 B2  | A2 B2 c2 d2 e4 d2 c2  | \
w:   |   | 
d4 c2 B2 c3B A4  | A6 c2 B2 c2 B2 A2  | 
w:   |  3. HANE  | 
B2 c2 B2 c2 B4 c2 d2  | e6 g2 f2 g2 f2 g2  | \
w:   |   | 
a4 b4 a4 g4  | f2 e2 f2 g2 a2 g2 f2 e2  | 
w:   |   | 
g2 f2 e2 d2 c2 de d2 c2  | A4 B2 c2 B2 c2 B2 A2  | \
w:   |   | 
B4 A4 BA Bc B2 A2  | 
w:   | 
B2 c2 d2 e2 d2 c4 B2  | A2 B2 c2 d2 B4 c4  | \
w:   |   | 
c6 B2 cd cB c4  | B2 c2 B2 c2 d2 e2 d2 c2  | 
w:  TESLİM  |   | 
e4 d2 e2 d2 c4 B2  | cd cB c2 d2 d2 c4 B2  | \
w:   |   | 
A2 G2 A2 B2 c4 d2 e2  | 
w:   | 
d2 c4 B2 z2 d2 c2 B2  | A2 B2 c2 d2 e4 d2 c2  | \
w:   |   | 
d4 c2 B2 c3B A4  | c6 B2 c2 B2 c2 d2  | 
w:   |  4. HANE  | 
c4 B2 c2 d4 c2 d2  | e6 f2 e2 fg f2 e2  | \
w:   |   | 
d4 e2 f2 e2 f2 e2 d2  | c4 B2 c2 d4 c2 d2  | 
w:   |   | 
e6 d2 ed ef e2 d2  | c4 B4 A4 B2 c2  | \
w:   |   | 
B2 c2 B2 A2 B2 c2 d2 e2  | 
w:   | 
d2 c4 B2 A2 B2 c2 d2  | c4 d4 B4 c4  | \
w:   |   | 
c6 B2 cd cB c4  | B2 c2 B2 c2 d2 e2 d2 c2  | 
w:  TESLİM  |   | 
e4 d2 e2 d2 c4 B2  | cd cB c2 d2 d2 c4 B2  | \
w:   |   | 
A2 G2 A2 B2 c4 d2 e2  | 
w:   | 
d2 c4 B2 z2 d2 c2 B2  | A2 B2 c2 d2 e4 d2 c2  | \
w:   |   | 
d4 c2 B2 c3B A4  | |


